startshape eye []

shape eye {
  loop (10)  [r 18] { vein [x 1.5] }
  loop (360) [r 1]  { CIRCLE [x 1.7 z 1] }
  CIRCLE [s 4 b 1 z 1]
  CIRCLE [s 2 b 1 h 200 sat .7 z 1]
  CIRCLE [b -1 z 1]
}

shape vein

rule 60 {
  CIRCLE []
  vein [z -.1 x .3 r -1.7 s .98]
}

rule 14 {
  CIRCLE []
  vein [x .3 s .98]
}

rule 4 {
  CIRCLE []
  vein [x .3 r -1.7 s .72 z -.2]
  vein [x .3 r -1.7 f 0 s .93]
}

rule 1 {
  CIRCLE []
  vein [x .3 f 0 s .98]
}

